icons/mobile/20/svg/email-shield-20.svg

<svg width="20" height="20" viewBox="0 0 20 20" fill="none" xmlns="http://www.w3.org/2000/svg">
<path fill-rule="evenodd" clip-rule="evenodd" d="M13.1074 8.79123C13.6954 8.39829 14.4493 8.40106 15.0293 8.79905C15.3022 8.98598 15.6075 9.17664 15.9443 9.36057C16.3002 9.5555 16.6419 9.71781 16.9648 9.85178C17.6938 10.1548 18.1167 10.9418 17.9717 11.7248L17.7344 13.0061C17.6144 13.652 17.3968 14.2149 17.0889 14.6809C16.5269 15.5318 15.7597 16.2719 14.9268 16.7658C14.6649 16.9207 14.3701 17.0002 14.0752 17.0002C13.7752 17.0002 13.475 16.9199 13.208 16.761C12.379 16.268 11.6146 15.5298 11.0576 14.6848C10.7478 14.2149 10.5321 13.6489 10.4121 13.0012L10.1729 11.6994C10.0281 10.9156 10.449 10.1274 11.1738 9.82444C11.4378 9.71544 11.7121 9.58858 11.9951 9.44358C12.3771 9.2476 12.7515 9.0282 13.1074 8.79123ZM14.0645 9.7512C13.9735 9.7512 13.8818 9.77823 13.7998 9.83323C13.404 10.0971 12.9892 10.3399 12.5664 10.5578C12.2535 10.7198 11.9472 10.8597 11.6543 10.9817C11.4693 11.0587 11.3634 11.2668 11.4014 11.4758L11.6406 12.7766C11.7296 13.2586 11.8836 13.6712 12.1006 13.9992C12.5555 14.6901 13.1758 15.2897 13.8457 15.6887C13.9149 15.7296 13.9935 15.7497 14.0713 15.7502L14.0645 9.7512ZM15.8574 14.261C15.79 14.3508 15.7166 14.4411 15.6406 14.5324C15.7853 14.3612 15.9218 14.1821 16.0449 13.9953L15.8574 14.261Z" fill="black"/>
<path fill-rule="evenodd" clip-rule="evenodd" d="M4.13867 4.26194C6.66767 3.91694 9.28094 3.91301 11.8359 4.25901C13.0698 4.42699 14.0008 5.49361 14.001 6.74045V7.25413C13.4691 7.26512 12.9549 7.42045 12.501 7.70237V6.74045C12.5009 6.6916 12.4816 6.64769 12.4746 6.60081L9.76172 8.86155C9.25172 9.28654 8.62597 9.50022 8.00098 9.50022C7.37598 9.50022 6.75123 9.28654 6.24023 8.86155L3.52539 6.59983C3.5184 6.64574 3.50007 6.68866 3.5 6.73655V10.259C3.50009 10.7599 3.87227 11.1881 4.36621 11.2551C5.86712 11.4581 7.3885 11.519 8.89941 11.469C8.90342 11.6209 8.91537 11.774 8.94336 11.927H8.94531L9.13477 12.9612C8.75684 12.9762 8.3789 13.0002 8.00098 13.0002C6.72598 13.0002 5.43602 12.9125 4.16602 12.7405C2.93208 12.5725 2.00107 11.5059 2.00098 10.259V6.73655C2.00111 5.49277 2.91992 4.42907 4.13867 4.26194ZM8 5.50022C6.92902 5.50022 5.85297 5.5744 4.79199 5.70139L7.2002 7.7092C7.66409 8.09486 8.33692 8.09488 8.7998 7.7092L11.209 5.70139C10.143 5.5744 9.06698 5.50022 8 5.50022Z" fill="black"/>
</svg>

<!-- This Source Code Form is subject to the terms of the Mozilla Public
   - License, v. 2.0. If a copy of the MPL was not distributed with this
   - file, You can obtain one at http://mozilla.org/MPL/2.0/. -->
<svg xmlns="http://www.w3.org/2000/svg" width="20" height="20" fill="none" viewBox="0 0 20 20">
    <path fill="#000" fill-rule="evenodd" d="M13.107 8.791a1.705 1.705 0 0 1 1.922.008 10.7 10.7 0 0 0 1.936 1.053 1.7 1.7 0 0 1 1.007 1.873l-.238 1.281c-.12.646-.337 1.209-.645 1.675a6.84 6.84 0 0 1-2.162 2.085 1.67 1.67 0 0 1-1.719-.005 6.8 6.8 0 0 1-2.15-2.076c-.31-.47-.526-1.036-.646-1.684l-.24-1.302a1.7 1.7 0 0 1 1.002-1.875q.396-.163.821-.38c.382-.196.757-.416 1.112-.653m.958.96a.47.47 0 0 0-.265.082 13 13 0 0 1-2.146 1.149.445.445 0 0 0-.253.494l.24 1.3c.089.483.243.895.46 1.223a5.54 5.54 0 0 0 1.745 1.69.45.45 0 0 0 .225.061zm1.792 4.51q-.101.135-.216.271a6 6 0 0 0 .404-.537z" clip-rule="evenodd" />
    <path fill="#000" fill-rule="evenodd" d="M4.139 4.262a28.7 28.7 0 0 1 7.697-.003A2.51 2.51 0 0 1 14 6.74v.514a2.95 2.95 0 0 0-1.5.448V6.74c0-.048-.02-.092-.026-.14L9.762 8.863a2.75 2.75 0 0 1-3.522 0L3.525 6.6c-.007.046-.025.089-.025.137v3.522c0 .5.372.93.866.996 1.501.203 3.023.264 4.533.214q.004.228.044.458h.002l.19 1.034c-.378.015-.756.04-1.134.04-1.275 0-2.565-.088-3.835-.26a2.51 2.51 0 0 1-2.165-2.482V6.737c0-1.244.919-2.308 2.138-2.475M8 5.5a27 27 0 0 0-3.208.201L7.2 7.71a1.25 1.25 0 0 0 1.6 0l2.409-2.008A27 27 0 0 0 8 5.501" clip-rule="evenodd" />
</svg>
